findly-builder/apps/searchassist/src/assets/images/pricing-plan/plan-order/payment-confirm-fail.svg

<svg width="69" height="69" viewBox="0 0 69 69" fill="none" xmlns="http://www.w3.org/2000/svg">
<circle cx="34.5" cy="34.5" r="34.5" fill="#FCEAED"/>
<path d="M42.9824 22.2442L35.0003 30.2266C32.3397 27.567 29.6783 24.9047 27.0173 22.2442C23.9389 19.166 19.1673 23.9392 22.2431 27.0183C24.9045 29.6771 27.5668 32.3397 30.2252 35.0002C27.5656 37.662 24.9049 40.3226 22.2431 42.9822C19.1673 46.0596 23.9394 50.8315 27.0173 47.7563C29.6778 45.0949 32.3393 42.4331 34.9998 39.7735L42.982 47.7563C46.0603 50.8337 50.8332 46.06 47.7562 42.9822C45.0947 40.3209 42.4342 37.6603 39.7719 34.9994C42.4337 32.338 45.0943 29.6766 47.7562 27.0157C50.8336 23.9392 46.0607 19.166 42.982 22.2459" fill="#EC1C24"/>
</svg>

<svg width="69" height="69" fill="none" xmlns="http://www.w3.org/2000/svg"><circle cx="34.5" cy="34.5" r="34.5" fill="#FCEAED"/><path d="M42.982 22.244 35 30.227l-7.983-7.983c-3.078-3.078-7.85 1.695-4.774 4.774 2.662 2.66 5.324 5.322 7.982 7.982-2.66 2.662-5.32 5.323-7.982 7.982-3.076 3.078 1.696 7.85 4.774 4.774L35 39.773l7.982 7.983c3.078 3.078 7.851-1.696 4.774-4.774L39.772 35l7.984-7.983c3.078-3.077-1.695-7.85-4.774-4.77" fill="#EC1C24"/></svg>
